X: 12754
T: Father O'Flynn
R: jig
M: 6/8
K: Dmajor
|:A|dAF DFA|ded cBA|dcd efg|fdf ecA|
dAF DFA|ded cBA|dcd efg fdd d2:|
|:g|fdf fga|ecA ABc|dcd Bed|cAA A2 c|
BGB Bcd|AFD DFA|dcd efg|fdd d2:|

